X: 467
T: A Wee Scotch
R: jig
M: 6/8
K: Gmajor
|:G|BGE DEG|c>de dBG|cde d<gB|AGA BGE|
G>AB AGE|c2 e dBG|g>dB AGA|BGF G2:|
|:d|gdB gdB|cde dBG|gdB g2 B|A/B/cB A2 d|
[1 g>dB g2 B|cde dBG|gdB AGA|BGF G2:|
[2 G>AB AGE|c2 e dBG|g<dB A3|B>GF G2||

